src/static/logos/google-gsuite.svg

<?xml version="1.0" encoding="UTF-8"?>
<svg width="512px" height="127px" viewBox="0 0 512 127" version="1.1" xmlns="http://www.w3.org/2000/svg" xmlns:xlink="http://www.w3.org/1999/xlink" preserveAspectRatio="xMidYMid">
    <g>
        <path d="M94.1061887,35.9283057 C90.1237741,31.8593169 85.7950626,28.7426446 81.2066283,26.5782888 C76.6181941,24.413933 70.8177207,23.3750423 64.1515049,23.3750423 C58.7839026,23.3750423 53.676023,24.3273588 48.9144403,26.2319919 C44.1528576,28.136625 39.9972946,30.8204261 36.4477511,34.2833953 C32.8116334,37.7463646 29.9546838,41.9885019 27.8769023,46.923233 C25.7991207,51.8579642 24.76023,57.3121407 24.76023,63.3723368 C24.76023,69.432533 25.7991207,74.8867095 27.8769023,79.8214406 C29.9546838,84.7561718 32.8116334,88.9117349 36.4477511,92.3747041 C40.0838688,95.8376733 44.3260061,98.6080487 49.0875888,100.512682 C53.8491715,102.417315 59.0436253,103.369631 64.4978018,103.369631 C70.2982753,103.369631 75.4061549,102.590463 79.7348664,100.945553 C84.063578,99.3006425 87.7862699,97.0497125 90.9029422,94.2793372 C92.9807237,92.3747041 94.8853568,90.0371999 96.5302672,87.2668245 C98.1751775,84.4098749 99.473791,81.2932026 100.426108,77.8302333 L63.805208,77.8302333 L63.805208,57.052418 L123.541427,57.052418 C123.887724,58.4376057 124.147447,60.0825161 124.407169,62.1602976 C124.666892,64.2380791 124.753466,66.1427122 124.753466,68.1339195 C124.753466,76.3584714 123.541427,83.8038553 121.117349,90.6432195 C118.69327,97.4825837 114.970578,103.456206 110.122421,108.737234 C104.668245,114.537707 98.1751775,118.952993 90.5566452,122.156239 C82.938113,125.359486 74.1941157,126.917822 64.4112276,126.917822 C55.5806561,126.917822 47.2695299,125.359486 39.4778492,122.156239 C31.6861684,118.952993 24.8468042,114.537707 18.9597565,108.910382 C13.1592831,103.283057 8.57084883,96.6168414 5.10787961,88.9117349 C1.64491038,81.2066283 0,72.6357795 0,63.4589111 C0,54.2820426 1.73148461,45.797768 5.10787961,38.0060873 C8.4842746,30.2144065 13.0727088,23.5481907 18.9597565,17.9208657 C24.76023,12.2935408 31.5995942,7.96482922 39.4778492,4.76158269 C47.3561042,1.55833615 55.6672303,0 64.4112276,0 C74.4538383,0 83.3709841,1.73148461 91.0760906,5.19445384 C98.7811972,8.65742306 105.447413,13.4190057 111.074738,19.4792019 L94.1061887,35.9283057 Z M247.6023,91.6821102 C247.6023,102.330741 243.706459,110.901589 235.914778,117.394657 C228.036524,123.714576 218.426784,126.917822 207.08556,126.917822 C197.042949,126.917822 188.125803,123.974298 180.420697,118.087251 C172.71559,112.200203 167.434562,104.148799 164.491038,94.0196145 L179.381806,87.8728441 C180.420697,91.5089618 181.805884,94.7987825 183.623943,97.7423064 C185.442002,100.68583 187.519784,103.196483 189.943862,105.274264 C192.36794,107.352046 195.051742,108.996956 197.995265,110.208996 C200.938789,111.421035 204.055462,112.027054 207.345282,112.027054 C214.444369,112.027054 220.331417,110.208996 224.833277,106.486304 C229.335137,102.850186 231.586067,97.9154549 231.586067,91.8552587 C231.586067,86.7473791 229.681434,82.4186676 225.958742,78.7825499 C222.495773,75.3195807 215.916131,71.8566114 206.306392,68.5667907 C196.610078,65.1038214 190.549882,62.679743 188.125803,61.4677038 C175.226243,54.8880622 168.81975,45.2783226 168.81975,32.4653365 C168.81975,23.5481907 172.369293,15.9296584 179.46838,9.6097396 C186.740615,3.28982076 195.571187,0.0865742306 206.133243,0.0865742306 C215.396686,0.0865742306 223.448089,2.42407846 230.200879,7.18566114 C236.953669,11.8606696 241.542103,17.6611431 243.793033,24.6736557 L229.335137,30.6472776 C227.949949,26.1454177 225.266148,22.3361515 221.283734,19.3926277 C217.301319,16.3625296 212.366588,14.8907677 206.652689,14.8907677 C200.505918,14.8907677 195.398039,16.6222523 191.242475,19.9986473 C187.086912,23.1153196 185.009131,27.2708827 185.009131,32.292188 C185.009131,36.4477511 186.654041,40.0838688 189.943862,43.1139669 C193.57998,46.1440649 201.458235,49.7801826 213.492053,53.9357457 C225.785594,58.0913088 234.616165,63.2857626 239.897193,69.3459587 C245.005073,75.4061549 247.6023,82.8515387 247.6023,91.6821102 Z M334.089956,124.147447 L319.199188,124.147447 L319.199188,112.633074 L318.506595,112.633074 C316.16909,116.702063 312.446398,120.078458 307.598241,122.848833 C302.66351,125.532634 297.555631,126.917822 292.274603,126.917822 C282.058843,126.917822 274.267163,123.974298 268.812986,118.173825 C263.35881,112.373351 260.588434,104.062225 260.588434,93.3270206 L260.588434,41.0361853 L276.171796,41.0361853 L276.171796,92.2881299 C276.518093,105.880284 283.357457,112.633074 296.689888,112.633074 C302.923233,112.633074 308.117687,110.122421 312.27325,105.101116 C316.428813,100.079811 318.506595,94.0196145 318.506595,87.0071018 L318.506595,41.0361853 L334.089956,41.0361853 L334.089956,124.147447 Z M369.671965,12.380115 C369.671965,15.4102131 368.633074,18.00744 366.468718,20.1717957 C364.304363,22.3361515 361.707136,23.3750423 358.677038,23.3750423 C355.646939,23.3750423 353.049713,22.3361515 350.885357,20.1717957 C348.721001,18.00744 347.68211,15.4102131 347.68211,12.380115 C347.68211,9.35001691 348.721001,6.75278999 350.885357,4.58843422 C353.049713,2.42407846 355.646939,1.38518769 358.677038,1.38518769 C361.707136,1.38518769 364.304363,2.42407846 366.468718,4.58843422 C368.633074,6.75278999 369.671965,9.35001691 369.671965,12.380115 Z M366.468718,41.0361853 L366.468718,124.147447 L350.885357,124.147447 L350.885357,41.0361853 L366.468718,41.0361853 Z M414.344268,125.532634 C407.591478,125.532634 401.964153,123.454853 397.462293,119.29929 C392.960433,115.143727 390.709503,109.256679 390.622929,101.811295 L390.622929,55.3209334 L375.991884,55.3209334 L375.991884,41.0361853 L390.536354,41.0361853 L390.536354,15.5833615 L406.119716,15.5833615 L406.119716,41.0361853 L426.46466,41.0361853 L426.46466,55.3209334 L406.119716,55.3209334 L406.119716,96.7034156 C406.119716,102.244166 407.158607,105.966858 409.322962,107.958066 C411.487318,109.949273 413.911397,110.901589 416.595198,110.901589 C417.807237,110.901589 419.019276,110.728441 420.231316,110.468718 C421.443355,110.208996 422.482246,109.776124 423.521136,109.343253 L428.455867,123.281704 C424.560027,124.753466 419.798444,125.532634 414.344268,125.532634 Z M472.695299,126.831248 C460.488333,126.831248 450.445722,122.675685 442.480893,114.277984 C434.602638,105.880284 430.620223,95.3182279 430.620223,82.591816 C430.620223,69.9519784 434.429489,59.3899222 442.134596,50.9922218 C449.839702,42.5945215 459.62259,38.3523842 471.656409,38.3523842 C483.949949,38.3523842 493.819412,42.3347988 501.091647,50.299628 C508.363882,58.2644572 512,69.432533 512,83.8038553 L511.826852,85.5353399 L446.549882,85.5353399 C446.809604,93.6733176 449.493405,100.252959 454.687859,105.18769 C459.882313,110.122421 466.115658,112.633074 473.387893,112.633074 C483.34393,112.633074 491.13561,107.698343 496.762935,97.7423064 L510.701387,104.495096 C506.978695,111.507609 501.784241,116.961786 495.204599,120.9442 C488.538383,124.840041 481.006425,126.831248 472.695299,126.831248 Z M447.761921,72.5492053 L495.464322,72.5492053 C495.031451,66.7487318 492.693947,61.9871491 488.451809,58.177883 C484.209672,54.3686168 478.495773,52.4639838 471.396686,52.4639838 C465.509638,52.4639838 460.488333,54.2820426 456.246195,57.9181603 C451.917484,61.6408522 449.147109,66.4890091 447.761921,72.5492053 Z" fill="#737373" fill-rule="nonzero"></path>
    </g>
</svg>

<svg width="512" height="127" xmlns="http://www.w3.org/2000/svg" preserveAspectRatio="xMidYMid"><path d="M94.106 35.928c-3.982-4.069-8.31-7.185-12.9-9.35-4.588-2.164-10.388-3.203-17.054-3.203-5.368 0-10.476.952-15.238 2.857-4.761 1.905-8.917 4.588-12.466 8.051-3.636 3.463-6.493 7.706-8.571 12.64-2.078 4.935-3.117 10.39-3.117 16.45 0 6.06 1.04 11.514 3.117 16.448 2.078 4.935 4.935 9.09 8.57 12.554a39.604 39.604 0 0012.64 8.138c4.762 1.904 9.957 2.857 15.41 2.857 5.801 0 10.91-.78 15.238-2.424 4.329-1.645 8.051-3.896 11.168-6.667 2.078-1.904 3.982-4.242 5.627-7.012 1.645-2.857 2.944-5.974 3.896-9.437h-36.62V57.052h59.735c.347 1.386.606 3.03.866 5.108s.346 3.983.346 5.974c0 8.224-1.212 15.67-3.636 22.51-2.424 6.839-6.146 12.812-10.995 18.093-5.454 5.8-11.947 10.216-19.565 13.42-7.619 3.202-16.363 4.76-26.146 4.76-8.83 0-17.141-1.558-24.933-4.76-7.792-3.204-14.631-7.62-20.518-13.247-5.8-5.627-10.39-12.293-13.852-19.998C1.645 81.207 0 72.636 0 63.459s1.731-17.661 5.108-25.453c3.376-7.792 7.965-14.458 13.852-20.085 5.8-5.627 12.64-9.956 20.518-13.16C47.356 1.559 55.668 0 64.41 0c10.043 0 18.96 1.731 26.665 5.194 7.705 3.463 14.371 8.225 19.999 14.285L94.106 35.93zm153.496 55.754c0 10.649-3.896 19.22-11.687 25.713-7.878 6.32-17.488 9.523-28.83 9.523-10.042 0-18.96-2.944-26.664-8.83-7.705-5.888-12.986-13.94-15.93-24.068l14.89-6.147c1.04 3.636 2.425 6.926 4.243 9.87 1.818 2.943 3.896 5.453 6.32 7.531a29.633 29.633 0 008.051 4.935c2.944 1.212 6.06 1.818 9.35 1.818 7.1 0 12.986-1.818 17.488-5.54 4.502-3.637 6.753-8.572 6.753-14.632 0-5.108-1.905-9.436-5.627-13.072-3.463-3.463-10.043-6.926-19.653-10.216-9.696-3.463-15.756-5.887-18.18-7.1-12.9-6.579-19.306-16.189-19.306-29.002 0-8.917 3.55-16.535 10.648-22.855 7.273-6.32 16.103-9.523 26.665-9.523 9.264 0 17.315 2.337 24.068 7.099 6.753 4.675 11.341 10.475 13.592 17.488l-14.458 5.973c-1.385-4.502-4.069-8.31-8.051-11.254-3.983-3.03-8.917-4.502-14.631-4.502-6.147 0-11.255 1.731-15.41 5.108-4.156 3.116-6.234 7.272-6.234 12.293 0 4.156 1.645 7.792 4.935 10.822 3.636 3.03 11.514 6.666 23.548 10.822 12.294 4.155 21.124 9.35 26.405 15.41 5.108 6.06 7.705 13.506 7.705 22.336zm86.488 32.465H319.2v-11.514h-.693c-2.338 4.07-6.06 7.445-10.909 10.216-4.934 2.684-10.042 4.069-15.323 4.069-10.216 0-18.008-2.944-23.462-8.744-5.454-5.8-8.225-14.112-8.225-24.847v-52.29h15.584v51.251c.346 13.592 7.185 20.345 20.518 20.345 6.233 0 11.428-2.51 15.583-7.532 4.156-5.021 6.234-11.081 6.234-18.094v-45.97h15.583v83.11zM369.672 12.38c0 3.03-1.039 5.627-3.203 7.792-2.165 2.164-4.762 3.203-7.792 3.203-3.03 0-5.627-1.039-7.792-3.203-2.164-2.165-3.203-4.762-3.203-7.792 0-3.03 1.039-5.627 3.203-7.792 2.165-2.164 4.762-3.203 7.792-3.203 3.03 0 5.627 1.04 7.792 3.203 2.164 2.165 3.203 4.762 3.203 7.792zm-3.203 28.656v83.111h-15.584v-83.11h15.584zm47.875 84.497c-6.753 0-12.38-2.078-16.882-6.234-4.502-4.155-6.752-10.042-6.84-17.488v-46.49h-14.63V41.036h14.544V15.583h15.584v25.453h20.345v14.285H406.12v41.382c0 5.541 1.039 9.264 3.203 11.255 2.164 1.991 4.588 2.944 7.272 2.944 1.212 0 2.424-.174 3.636-.433 1.212-.26 2.251-.693 3.29-1.126l4.935 13.939c-3.896 1.471-8.658 2.25-14.112 2.25zm58.351 1.298c-12.207 0-22.25-4.155-30.214-12.553-7.878-8.398-11.86-18.96-11.86-31.686 0-12.64 3.808-23.202 11.514-31.6 7.705-8.397 17.488-12.64 29.521-12.64 12.294 0 22.163 3.983 29.436 11.948C508.364 58.264 512 69.433 512 83.804l-.173 1.731H446.55c.26 8.138 2.943 14.718 8.138 19.653 5.194 4.934 11.428 7.445 18.7 7.445 9.956 0 17.748-4.935 23.375-14.89l13.938 6.752c-3.722 7.013-8.917 12.467-15.496 16.45-6.667 3.895-14.199 5.886-22.51 5.886zM447.762 72.55h47.702c-.433-5.8-2.77-10.562-7.012-14.371-4.242-3.81-9.956-5.714-17.055-5.714-5.887 0-10.909 1.818-15.15 5.454-4.33 3.723-7.1 8.571-8.485 14.631z" fill="#737373"/></svg>
